X: 41990
T: Walls Of Liscarrol, The
R: jig
M: 6/8
K: Edorian
e|:"Em"edB "Em"BAF|"D"AFE "Em"E2F|"D"AFF "D"dFF|"Bm"ABc "Bm"def|
"Em"edB "Em"BAF|"D"AFE "Em"E2F|"D"AFF "D"DFF|"Em"FED "Em"E2 e:|
|:"Em"eBe "Em"fdB|"Em"eBe "Em"fdB|"D"AFF "D"dFF|"Bm7"ABc "Bm7"def|
[1 "Em"gfe "Em"fed|"Em"edB "Em"d2B|"D"AFA "D"dAF|"Em"EFE "Em"E2e:|
[2 "Am7"edB "Am7"BAF|"Bm7"AFE "Bm7"E2F|"D"AFF "D"DFF|"Em"FED "Em"E3||

